img/features__01.svg

<svg width="28" height="27" viewBox="0 0 28 27" fill="none" xmlns="http://www.w3.org/2000/svg">
<path d="M26.0462 15.8721C25.2631 15.081 24.2019 14.6273 23.0889 14.6078V8.56228C23.0897 8.41344 23.0145 8.27436 22.8896 8.19337L12.0006 0.931147C11.8506 0.829592 11.6538 0.829592 11.5037 0.931147L0.67724 8.14874C0.552258 8.23111 0.47731 8.37093 0.47784 8.52062V18.6628C0.475402 18.8153 0.551834 18.9583 0.680209 19.0407L11.7833 26.3088C11.9341 26.408 12.1294 26.408 12.2802 26.3088L19.4205 21.3463C19.452 21.3227 19.4809 21.2957 19.5067 21.266L22.5235 26.5617C22.6024 26.6986 22.7464 26.7851 22.9043 26.7907C23.0584 26.7908 23.2015 26.7108 23.2821 26.5796L26.6588 21.2094C26.6737 21.1873 26.6856 21.1632 26.6946 21.138C27.7166 19.4442 27.4526 17.2719 26.0549 15.872L26.0462 15.8721ZM12.0334 15.2563L7.10657 11.9837L16.9751 5.32238L21.9971 8.66934L12.0334 15.2563ZM11.7358 1.83846L16.1598 4.78684L6.30325 11.4422L1.81978 8.46708L11.7358 1.83846ZM1.37053 9.2227L11.4859 15.9644V25.0444L1.37053 18.4218V9.2227ZM12.3785 25.1516V16.0982L22.1964 9.60655V14.6792C20.1594 15.0632 18.6824 16.8398 18.6768 18.9128C18.6621 19.482 18.791 20.0458 19.0517 20.5521C19.0091 20.5642 18.969 20.5833 18.9327 20.6086L12.3785 25.1516ZM26.4123 18.9217C26.4094 19.5652 26.2259 20.1952 25.8826 20.7395C25.87 20.7614 25.859 20.7843 25.8499 20.8079L22.9313 25.47L20.1318 20.5284C20.1046 20.4557 20.0596 20.3914 20.0008 20.3408C19.7925 20.1712 19.5695 19.6537 19.5695 18.9217C19.5695 17.0305 21.1027 15.4974 22.9938 15.4974C24.8784 15.4941 26.4091 17.0191 26.4124 18.9039C26.4123 18.9097 26.4123 18.9157 26.4123 18.9217Z" fill="white"/>
<path d="M22.9938 16.8243C21.9528 16.8243 21.1079 17.6664 21.1046 18.7075C21.0997 19.7477 21.9389 20.5948 22.979 20.5997C22.9829 20.5997 22.9868 20.5998 22.9909 20.5997C24.0335 20.5584 24.8449 19.6796 24.8037 18.6371C24.7646 17.6526 23.9755 16.8634 22.9909 16.8243H22.9938ZM23.9815 18.7135C23.9798 19.2617 23.536 19.7056 22.9878 19.7072C22.7234 19.7061 22.4705 19.5989 22.2857 19.4097C22.0941 19.2253 21.9866 18.9704 21.9882 18.7046C21.9882 18.1557 22.433 17.711 22.9819 17.711C23.5323 17.7093 23.9798 18.1541 23.9815 18.7046C23.9815 18.7075 23.9815 18.7105 23.9815 18.7135Z" fill="white"/>
</svg>

<svg width="28" height="27" fill="none" xmlns="http://www.w3.org/2000/svg"><path d="M26.046 15.872a4.266 4.266 0 00-2.957-1.264V8.562a.437.437 0 00-.2-.369L12.002.931a.443.443 0 00-.497 0L.677 8.15a.443.443 0 00-.2.372v10.142a.44.44 0 00.203.378l11.103 7.268a.453.453 0 00.497 0l7.14-4.963a.556.556 0 00.087-.08l3.016 5.296a.458.458 0 00.381.229c.154 0 .297-.08.378-.211l3.377-5.37a.32.32 0 00.036-.072 4.305 4.305 0 00-.64-5.266h-.009zm-14.013-.616l-4.926-3.272 9.868-6.662 5.022 3.347-9.964 6.587zm-.297-13.418l4.424 2.949-9.857 6.655L1.82 8.467l9.916-6.629zM1.37 9.223l10.115 6.741v9.08L1.37 18.422v-9.2zm11.008 15.929v-9.054l9.817-6.491v5.072a4.32 4.32 0 00-3.52 4.234 3.39 3.39 0 00.376 1.64.398.398 0 00-.12.056l-6.553 4.543zm14.033-6.23a3.437 3.437 0 01-.53 1.817.493.493 0 00-.032.069L22.93 25.47l-2.8-4.942a.46.46 0 00-.13-.187c-.209-.17-.431-.687-.431-1.42a3.424 3.424 0 013.424-3.424 3.413 3.413 0 013.418 3.407v.018z" fill="#fff"/><path d="M22.994 16.824a1.89 1.89 0 00-1.89 1.883A1.883 1.883 0 0022.98 20.6h.012a1.89 1.89 0 000-3.776h.003zm.988 1.89a.987.987 0 01-1.696.696.97.97 0 01-.298-.705.997.997 0 011.993 0v.009z" fill="#fff"/></svg>
